local/share/icons/dracula-icons-main/scalable/apps/xmind.svg

<svg width="64" height="64" version="1.1" viewBox="0 0 16.933 16.933" xmlns="http://www.w3.org/2000/svg">
 <circle cx="8.4665" cy="8.46" r="7.1436" fill="#df4139" style="paint-order:stroke markers fill"/>
 <path d="m6.6303 5.8611c-0.019217 0-0.042017 0.00258-0.067426 0.00394-0.098044 0.00653-1.9468 0.33712-2.065 0.37034-0.12475 0.035501-0.23028 0.10813-0.25569 0.17686-0.044626 0.11823 0.084033 0.49998 0.25178 0.75697 0.29152 0.44265 0.71495 0.72407 1.6058 1.0674 0.48988 0.18826 0.5915 0.2368 0.65469 0.3078 0.087949 0.095433 0.015303 0.14006-0.63124 0.41464-1.0091 0.42864-1.4644 0.7928-1.6566 1.3309-0.058624 0.15895-0.084033 0.5801-0.044626 0.68563 0.052112 0.13745 0.084033 0.13615 1.0599-0.04201 0.98041-0.17817 1.0254-0.18826 1.1081-0.2635 0.066121-0.06221 0.070024-0.07492 0.099349-0.36122 0.015302-0.16286 0.052111-0.36774 0.076215-0.45177 0.058624-0.19706 0.20618-0.40193 0.36773-0.51138 0.61202-0.41236 1.7621-0.20618 2.3855 0.42636 0.23419 0.2368 0.38174 0.49118 0.49997 0.86022 0.06743 0.21367 0.13745 0.3065 0.24299 0.32572 0.09805 0.01922 0.10065 0.01922 1.3488-0.20878 0.69345-0.12604 0.98041-0.18696 1.0231-0.21888 0.08794-0.06481 0.08794-0.22409 0.0014-0.48858-0.1502-0.45535-0.4098-0.78498-0.89186-1.1348-0.23908-0.17296-0.53939-0.33581-1.0498-0.57-0.48466-0.22279-0.58401-0.2824-0.58401-0.35112 0-0.056026 0.05993-0.081424 0.44395-0.19217 0.8423-0.24168 1.1706-0.5801 1.1706-1.2074 0-0.27491-0.05342-0.49737-0.13876-0.5687-0.11206-0.096738-0.23158-0.099349-0.70224-0.017912-1.509 0.2609-1.467 0.25178-1.5358 0.35992-0.036809 0.058624-0.035504 0.071329 0.031922 0.33223 0.039407 0.15016 0.070024 0.30911 0.070024 0.35243 0 0.092823-0.064816 0.24689-0.12605 0.30292-0.15016 0.13485-0.49118 0.22637-0.841 0.22637-0.42245 0-0.73938-0.13876-1.056-0.46056-0.22768-0.23419-0.34493-0.42995-0.49997-0.84361-0.13615-0.36383-0.15634-0.41105-0.2964-0.40975" fill="#f9f9f9"/>
</svg>

<?xml version="1.0" encoding="UTF-8"?>
<svg xmlns="http://www.w3.org/2000/svg" xmlns:xlink="http://www.w3.org/1999/xlink" width="64" height="64" viewBox="0 0 64 64">
<path fill-rule="nonzero" fill="rgb(87.45098%, 25.490196%, 22.352941%)" fill-opacity="1" d="M 15.609375 8.460938 C 15.609375 12.40625 12.410156 15.605469 8.464844 15.605469 C 4.519531 15.605469 1.324219 12.40625 1.324219 8.460938 C 1.324219 4.515625 4.519531 1.316406 8.464844 1.316406 C 12.410156 1.316406 15.609375 4.515625 15.609375 8.460938 Z M 15.609375 8.460938 "/>
<path fill-rule="nonzero" fill="rgb(97.647059%, 97.647059%, 97.647059%)" fill-opacity="1" d="M 6.628906 5.859375 C 6.609375 5.859375 6.589844 5.863281 6.5625 5.863281 C 6.464844 5.871094 4.617188 6.203125 4.496094 6.234375 C 4.375 6.269531 4.269531 6.34375 4.242188 6.414062 C 4.199219 6.53125 4.328125 6.914062 4.492188 7.167969 C 4.785156 7.613281 5.207031 7.894531 6.101562 8.238281 C 6.589844 8.425781 6.691406 8.472656 6.753906 8.542969 C 6.84375 8.640625 6.769531 8.683594 6.125 8.960938 C 5.113281 9.386719 4.660156 9.75 4.464844 10.289062 C 4.40625 10.449219 4.382812 10.871094 4.421875 10.976562 C 4.472656 11.113281 4.507812 11.113281 5.480469 10.933594 C 6.460938 10.753906 6.507812 10.746094 6.589844 10.671875 C 6.65625 10.609375 6.660156 10.59375 6.6875 10.308594 C 6.703125 10.144531 6.742188 9.941406 6.765625 9.855469 C 6.824219 9.660156 6.972656 9.457031 7.132812 9.34375 C 7.746094 8.933594 8.894531 9.140625 9.519531 9.773438 C 9.753906 10.007812 9.902344 10.261719 10.019531 10.632812 C 10.085938 10.847656 10.15625 10.9375 10.261719 10.957031 C 10.359375 10.976562 10.363281 10.976562 11.609375 10.75 C 12.304688 10.625 12.589844 10.5625 12.632812 10.53125 C 12.722656 10.464844 12.722656 10.304688 12.636719 10.042969 C 12.484375 9.585938 12.226562 9.257812 11.742188 8.90625 C 11.503906 8.734375 11.203125 8.570312 10.695312 8.335938 C 10.207031 8.113281 10.109375 8.054688 10.109375 7.984375 C 10.109375 7.929688 10.167969 7.90625 10.554688 7.792969 C 11.394531 7.550781 11.722656 7.214844 11.722656 6.585938 C 11.722656 6.3125 11.671875 6.089844 11.585938 6.015625 C 11.472656 5.921875 11.355469 5.917969 10.882812 6 C 9.375 6.261719 9.414062 6.25 9.347656 6.359375 C 9.308594 6.417969 9.3125 6.429688 9.378906 6.691406 C 9.417969 6.84375 9.449219 7 9.449219 7.042969 C 9.449219 7.136719 9.382812 7.292969 9.324219 7.347656 C 9.171875 7.480469 8.832031 7.574219 8.480469 7.574219 C 8.058594 7.574219 7.742188 7.433594 7.425781 7.113281 C 7.199219 6.878906 7.082031 6.683594 6.925781 6.269531 C 6.789062 5.90625 6.769531 5.859375 6.628906 5.859375 "/>
</svg>
